!! 00000] TT[WS
!!!OTL: You huayuan
!!!ARE: Asia, China, Shanxi Wutai
!! Ethnic Group: Han
!! WI, 185
!!!SCT: J0219
!!!YEM: Copyright 1995, estate of Helmut Schaffrath.
**kern
*ICvox
*Ivox
*M2/4
*k[f#]
*G:
{8dd
8ee
8dd
8b
=1
8dd
8ee
4dd
=2
8ee
8dd
8cc
8b
=3
8dd
16dd
16dd
8b
[8dd
=4
8dd]}
{8ee
8dd
8ee
=5
8dd
8dd
8b
8a
=6
8g
8b
8b
8e
=7
2d}
=8
{8dd
8dd
8b
8a
=9
8b
8e
4d
=10
8dd
8dd
8b
16b
16a
=11
8a
8e
4d}
=12
{8a
8a
8e
8g
=13
8a
8b
4dd
=14
8.gg
16gg
8dd
8dd
=15
8b
16b
16a
8e
8g
=16
8a
16a
16e
[4d
=17
4d]
4r}
==
!!!AGN: Xiaodiao. Fengsuge, Qingge
!!!ONB: ESAC (Essen Associative Code) Database: CHINA
!!!AMT: simple duple
!!!AIN: vox
!!!EED: Helmut Schaffrath
!!!EEV: 1.0
*-
!!!ONB: Tied note syntax fixed by Craig Sapp, 2004/05/03/
